X:18
T:Sally Gardens
R:reel
M:4/4
L:1/8
K:G
|:G2DG B2GB|dBeB dBAB|d2Bd efge|dBAB GEDE|
G2DG B2GB|dBeB dBAB|d2Bd efge|dBAB G4:|
|:dggf g2dg|g2bg agfg|eaag a2ba|a2ba agfg|
dggf g2dg|g2bg agfg|d2Bd efge|dBAB G4:|
